X:174
T:One night at 10 o'clock - Fone
%%VWML:SBG-1-2-775-0
F:http://www.vwml.org/record/SBG/1/2/775
Z:Original Sibelius transcriptions by M. & S. Graebe
L:1/8
M:3/4
I:linebreak $
K:Eb
V:1 treble nm="P1"
V:2 treble 
V:1
 e2 B3 c | B A E3 E | A2 c2 e2 | B G E4 | e2 B2 e2 | f2 B2 d2 | f2 e2 cd | B6 |$ E2 G3 B | %9
 ec A3 A | F2 d2 e2 | ed B2 BB | e2 e2 ge | B2 G2 EG | B>A E2 D2 | E4 x2 | %16
V:2
 x6 | x6 | x6 | x6 | x6 | x6 | x6 | x6 |$ x6 | x6 | x6 | x6 | x6 | x6 | x x/ G x/ x x2 | x6 | %16
T:One night at 10 o'clock - Mallet
F:http://www.vwml.org/record/SBG/1/2/775
Z:Original Sibelius transcriptions by M. & S. Graebe
M:6/8
I:linebreak $
K:C
V:1 treble nm="P1"
V:1
 G | c3/2 B/ c G F E | F3/2 G/ A G E C | c3/2 B/ c d B G | ^F3/2 G/ A G2 z | C3/2 E/ G c A F | %6
 C3/2 B/ c d B G |$ c3/2 d/ e G3/2 F/ E | F E D (2:1:1!fermata!!///!C4 z | C3/2 E/ G c A F | %10
 C3/2 B/ c d B G | c3/2 d/ e G3/2 F/ E | F E D !fermata!C2 x | %13

